X:394
T:Miss Dumbreck
R:Reel
O:Scotland
B:Kerr's First p13
S:Kerr's First p13
Z:Transcription, chords:Mike Long
M:C|
L:1/8
K:A
d[|\
"A"dcBA A2ce|"A"fece "D"fgae|"A"dcBA A2cA|"E"BGEG Bcde|\
"A"dcBA A2ce|
fece fefg|"D"a2ae dcBA|"E"GEBE cEBE|]\
"A"A2ce fece|aece fecA|"E"E2GB "(B)"ef^df|
"E"ef^df eBGE|\
"A"A2ce fece|aece fecA|"D"FdEc DBCA|"E"EFGA Bcde|]
